_/img/sun-light.svg

<svg width="41" height="40" viewBox="0 0 41 40" fill="none" xmlns="http://www.w3.org/2000/svg">
<path d="M20.6543 11V13.25M27.0183 13.636L25.4273 15.227M29.6543 20H27.4043M27.0183 26.364L25.4273 24.773M20.6543 26.75V29M15.8813 24.773L14.2903 26.364M13.9043 20H11.6543M15.8813 15.227L14.2903 13.636M24.4043 20C24.4043 22.0711 22.7254 23.75 20.6543 23.75C18.5832 23.75 16.9043 22.0711 16.9043 20C16.9043 17.9289 18.5832 16.25 20.6543 16.25C22.7254 16.25 24.4043 17.9289 24.4043 20Z" stroke="white" stroke-width="1.5" stroke-linecap="round" stroke-linejoin="round"/>
</svg>

<svg width="41" height="40" viewBox="0 0 41 40" fill="none" xmlns="http://www.w3.org/2000/svg"><path d="M20.654 11v2.25m6.364.386l-1.59 1.591M29.653 20h-2.25m-.386 6.364l-1.59-1.591m-4.774 1.977V29m-4.773-4.227l-1.59 1.591M13.903 20h-2.25m4.227-4.773l-1.59-1.591M24.403 20a3.75 3.75 0 11-7.5 0 3.75 3.75 0 017.5 0z" stroke="#fff" stroke-width="1.5" stroke-linecap="round" stroke-linejoin="round"/></svg>
